app/renderer/assets/image/components/car.svg

<?xml version="1.0" encoding="UTF-8"?>
<svg width="150px" height="150px" viewBox="0 0 150 150" version="1.1" xmlns="http://www.w3.org/2000/svg" xmlns:xlink="http://www.w3.org/1999/xlink">
    <!-- Generator: Sketch 45.2 (43514) - http://www.bohemiancoding.com/sketch -->
    <title>小车</title>
    <desc>Created with Sketch.</desc>
    <defs>
        <circle id="path-1" cx="53" cy="46" r="12"></circle>
        <circle id="path-2" cx="97" cy="46" r="12"></circle>
    </defs>
    <g id="Page-1" stroke="none" stroke-width="1" fill="none" fill-rule="evenodd">
        <g id="小车">
            <rect id="Rectangle-17-Copy" fill="#505B72" x="45" y="88" width="60" height="22" rx="2"></rect>
            <rect id="Rectangle-17" fill="#1891EC" x="40" y="92" width="70" height="24"></rect>
            <rect id="Rectangle-2" fill="#1891EC" x="65" y="75.0064465" width="20" height="17"></rect>
            <rect id="Rectangle" fill="#3D4863" x="17" y="81" width="26" height="44" rx="5"></rect>
            <rect id="Rectangle-Copy" fill="#3D4863" x="107" y="81" width="26" height="44" rx="5"></rect>
            <path d="M35,26 L115,26 C119.418278,26 123,29.581722 123,34 L123,58 C123,62.418278 119.418278,66 115,66 L35,66 C30.581722,66 27,62.418278 27,58 L27,34 L27,34 C27,29.581722 30.581722,26 35,26 L35,26 Z M52,66 L98.1123047,66 L88.8834857,75.0064465 L61.1602453,75.0064465 L52,66 Z" id="Combined-Shape" fill="#6C7487"></path>
            <g id="Oval-7">
                <use fill="#505B73" fill-rule="evenodd" xlink:href="#path-1"></use>
                <circle stroke-opacity="0.806923687" stroke="#3D4863" stroke-width="2" cx="53" cy="46" r="13"></circle>
            </g>
            <g id="Oval-7-Copy">
                <use fill="#505B73" fill-rule="evenodd" xlink:href="#path-2"></use>
                <circle stroke-opacity="0.806923687" stroke="#3D4863" stroke-width="2" cx="97" cy="46" r="13"></circle>
            </g>
            <rect id="Rectangle-19" fill="#555E73" x="68" y="62" width="3" height="4" rx="1.5"></rect>
            <rect id="Rectangle-19" fill="#555E73" x="74" y="62" width="3" height="4" rx="1.5"></rect>
            <rect id="Rectangle-19" fill="#555E73" x="80" y="62" width="3" height="4" rx="1.5"></rect>
            <circle id="Oval-8" fill="#0C71BD" cx="52" cy="97" r="2"></circle>
            <circle id="Oval-8-Copy" fill="#0C71BD" cx="98" cy="97" r="2"></circle>
            <circle id="Oval-8-Copy-3" fill="#0C71BD" cx="52" cy="111" r="2"></circle>
            <circle id="Oval-8-Copy-2" fill="#0C71BD" cx="98" cy="111" r="2"></circle>
        </g>
    </g>
</svg>

<svg width="150" height="150" xmlns="http://www.w3.org/2000/svg" xmlns:xlink="http://www.w3.org/1999/xlink"><defs><circle id="a" cx="53" cy="46" r="12"/><circle id="b" cx="97" cy="46" r="12"/></defs><g fill="none" fill-rule="evenodd"><rect fill="#505B72" x="45" y="88" width="60" height="22" rx="2"/><path fill="#1891EC" d="M40 92h70v24H40z"/><path fill="#1891EC" d="M65 75.006h20v17H65z"/><rect fill="#3D4863" x="17" y="81" width="26" height="44" rx="5"/><rect fill="#3D4863" x="107" y="81" width="26" height="44" rx="5"/><path d="M35 26h80a8 8 0 0 1 8 8v24a8 8 0 0 1-8 8H35a8 8 0 0 1-8-8V34a8 8 0 0 1 8-8zm17 40h46.112l-9.229 9.006H61.16L52 66z" fill="#6C7487"/><use fill="#505B73" xlink:href="#a"/><circle stroke-opacity=".807" stroke="#3D4863" stroke-width="2" cx="53" cy="46" r="13"/><use fill="#505B73" xlink:href="#b"/><circle stroke-opacity=".807" stroke="#3D4863" stroke-width="2" cx="97" cy="46" r="13"/><rect fill="#555E73" x="68" y="62" width="3" height="4" rx="1.5"/><rect fill="#555E73" x="74" y="62" width="3" height="4" rx="1.5"/><rect fill="#555E73" x="80" y="62" width="3" height="4" rx="1.5"/><circle fill="#0C71BD" cx="52" cy="97" r="2"/><circle fill="#0C71BD" cx="98" cy="97" r="2"/><circle fill="#0C71BD" cx="52" cy="111" r="2"/><circle fill="#0C71BD" cx="98" cy="111" r="2"/></g></svg>
